X: 45
T: John Ryan's Polka
B: begged borrowed and stolen
M:2/4
L:1/16
R: Polka
Q: 1/4=100
K:D
V:1 
|:"D"d2d2 BcdB|"G"A2F2 A2F2|"D"d2d2 BcdB|"G"A2F2 "A"E2D2|
"D"d2d2 BcdB|"G"A2F2 A2de|"D"f2d2 "A"edc2|1"D"d4 d4:|2"D"d4 d2 de||
|:|"D"f2d2 d2ef|"G"g2f2 e2de|"D"f2d2 A2d2|"G"f2df "A"a3g|
"D"f2d2 d2ef|"G"g2f2 e2de|"D"f2d2 "A"edc2|1 "D"d4 d2 de:|2 "D"d4 d4||
% abcbook-tune_id 62828bdf8381b7318152407b


% abcbook-boost 0
% abcbook-tablature 
% abcbook-transpose 
% abcbook-lastupdated 1652725431075
% abcbook-soundfonts 
% abcbook-repeats 3


